src/assets/icons/person.svg

<svg width="16" height="16" viewBox="0 0 16 16" fill="none" xmlns="http://www.w3.org/2000/svg">
<g clip-path="url(#clip0_8874_15283)">
<path fill-rule="evenodd" clip-rule="evenodd" d="M7.46218 0.0158669C5.75943 0.131112 4.19145 0.764035 2.84555 1.8794C2.62523 2.06196 2.06347 2.62372 1.88091 2.84403C0.8605 4.07536 0.246026 5.48548 0.0591891 7.02465C-0.190468 9.08124 0.362792 11.1568 1.59748 12.7954C1.85142 13.1325 2.01642 13.3199 2.3654 13.6677C3.15473 14.4545 4.00089 15.0147 5.01708 15.4232C6.92838 16.1915 9.07402 16.1915 10.9845 15.4232C11.7502 15.1153 12.3989 14.731 13.0791 14.1824C13.3296 13.9803 13.9183 13.3996 14.121 13.1545C14.6927 12.4632 15.1068 11.7735 15.4247 10.983C16.4662 8.39322 16.0765 5.42273 14.4041 3.2031C14.1552 2.87279 13.9869 2.68098 13.653 2.34706C13.3191 2.01314 13.1273 1.84486 12.797 1.59597C11.2814 0.454071 9.36671 -0.11304 7.46218 0.0158669ZM7.62032 1.72517C6.3203 1.80334 5.09157 2.27808 4.05618 3.10227C3.84011 3.27427 3.27578 3.83859 3.10379 4.05467C2.37587 4.96914 1.91699 6.04177 1.76849 7.17599C1.66785 7.94459 1.71358 8.76816 1.89822 9.5125C2.11015 10.3669 2.52209 11.2073 3.06395 11.8906L3.20065 12.0631L3.48476 11.7792C4.24165 11.0229 5.14219 10.4769 6.1355 10.1719C6.51722 10.0547 7.12602 9.93142 7.32307 9.93142C7.42856 9.93142 7.40415 9.90496 7.27722 9.88176C6.95035 9.82197 6.48173 9.64158 6.17123 9.45602C4.89966 8.69606 4.22079 7.2693 4.43723 5.81165C4.60772 4.66348 5.32933 3.66781 6.37642 3.13603C6.89042 2.87496 7.41632 2.74999 8.00079 2.74999C9.71453 2.74999 11.1908 3.95351 11.5316 5.62839C11.839 7.13947 11.1515 8.67672 9.81528 9.4658C9.51383 9.64383 9.04233 9.82361 8.72435 9.88176C8.59589 9.90526 8.57347 9.93128 8.68147 9.9316C8.77597 9.93186 9.16279 9.99348 9.38578 10.0438C9.85695 10.1501 10.3053 10.3072 10.7486 10.5214C11.4293 10.8503 11.979 11.2412 12.5168 11.779L12.8009 12.0631L12.9375 11.8906C13.6336 11.0116 14.0854 9.94077 14.2333 8.81946C14.3983 7.56878 14.1815 6.30286 13.6057 5.15394C13.3065 4.55696 12.954 4.07542 12.4394 3.56047C11.7138 2.83441 10.9499 2.35941 9.99278 2.03913C9.42999 1.85082 8.96299 1.76171 8.34276 1.72429C8.0329 1.70561 7.94378 1.70571 7.62032 1.72517ZM7.69168 4.48639C6.82972 4.64247 6.19389 5.32922 6.12313 6.18049C6.07343 6.77846 6.27637 7.31103 6.71191 7.72573C7.3464 8.32984 8.31345 8.40813 9.0609 7.91592C9.24919 7.79193 9.47982 7.54765 9.62256 7.321C9.69386 7.20781 9.79972 6.94759 9.83703 6.79382C9.89906 6.53821 9.8994 6.14973 9.83783 5.90691C9.70145 5.36907 9.34889 4.92164 8.86365 4.67059C8.51467 4.49005 8.06326 4.41909 7.69168 4.48639ZM7.63317 11.619C6.6951 11.7032 5.82892 12.0471 5.10269 12.6235C4.93023 12.7604 4.49557 13.1786 4.49557 13.2077C4.49557 13.2315 4.84879 13.446 5.1039 13.5772C5.65426 13.8602 6.27569 14.0757 6.83999 14.1793C8.23028 14.4344 9.63648 14.2257 10.8977 13.5772C11.1528 13.446 11.506 13.2315 11.506 13.2077C11.506 13.1799 11.0752 12.7639 10.9076 12.6298C10.3449 12.1797 9.63282 11.8448 8.93595 11.7025C8.54823 11.6233 7.98595 11.5873 7.63317 11.619Z" fill="currentColor"/>
</g>
<defs>
<clipPath id="clip0_8874_15283">
<rect width="16" height="16" fill="white" transform="translate(0 -0.000732422)"/>
</clipPath>
</defs>
</svg>

<svg xmlns="http://www.w3.org/2000/svg" width="16" height="16" fill="none">
  <g clip-path="url(#a)">
    <path fill="currentColor" fill-rule="evenodd" d="M7.462.016C5.76.13 4.192.764 2.846 1.879c-.22.183-.783.745-.965.965C.86 4.075.246 5.485.059 7.024a8 8 0 0 0 1.538 5.771c.254.338.42.525.768.873a7.732 7.732 0 0 0 2.652 1.755 8.013 8.013 0 0 0 8.062-1.24c.25-.203.84-.783 1.042-1.028a8.008 8.008 0 0 0 .283-9.952 7.03 7.03 0 0 0-.751-.856 7.026 7.026 0 0 0-.856-.751A8.014 8.014 0 0 0 7.462.016Zm.158 1.71a6.299 6.299 0 0 0-3.564 1.376c-.216.172-.78.737-.952.953a6.321 6.321 0 0 0-1.336 3.121c-.1.769-.054 1.592.13 2.336a6.362 6.362 0 0 0 1.166 2.379l.137.172.284-.284a6.395 6.395 0 0 1 2.65-1.607c.382-.117.991-.24 1.188-.24.106 0 .081-.027-.046-.05a3.82 3.82 0 0 1-1.106-.426 3.612 3.612 0 0 1-1.734-3.644 3.598 3.598 0 0 1 1.94-2.676A3.488 3.488 0 0 1 8 2.75a3.6 3.6 0 0 1 3.53 2.878 3.618 3.618 0 0 1-1.716 3.838 3.875 3.875 0 0 1-1.09.416c-.13.023-.152.05-.044.05.095 0 .482.061.705.112.471.106.92.263 1.363.477.68.33 1.23.72 1.768 1.258l.284.284.136-.172a6.293 6.293 0 0 0 1.296-3.072 6.308 6.308 0 0 0-.627-3.665 5.887 5.887 0 0 0-1.167-1.594 6.014 6.014 0 0 0-2.446-1.52 5.945 5.945 0 0 0-1.65-.316 4.57 4.57 0 0 0-.723.001Zm.072 2.76c-.862.156-1.498.843-1.569 1.694-.05.598.153 1.131.589 1.546a1.887 1.887 0 0 0 2.349.19 2.17 2.17 0 0 0 .562-.595 2.35 2.35 0 0 0 .214-.527 2.145 2.145 0 0 0 0-.887 1.914 1.914 0 0 0-.973-1.236c-.35-.181-.8-.252-1.172-.185Zm-.059 7.133a4.713 4.713 0 0 0-2.53 1.005c-.173.136-.607.555-.607.584 0 .024.353.238.608.37.55.282 1.172.498 1.736.601a6.316 6.316 0 0 0 4.058-.602c.255-.131.608-.345.608-.37 0-.027-.43-.443-.598-.577a4.778 4.778 0 0 0-1.972-.928 5.256 5.256 0 0 0-1.303-.083Z" clip-rule="evenodd"/>
  </g>
  <defs>
    <clipPath id="a">
      <path fill="#fff" d="M0 0h16v16H0z"/>
    </clipPath>
  </defs>
</svg>
